X: 1
T: Doctor Jazz
A: King Oliver (1926)
M: 4/4
L: 1/8
Q:1/4=160
K:Db
E2 F2 =G2 A2| B2 c2 G2<F2| E8-| E6 z2 | 
z E2 F2 =G2 A2| B2 c2 G2<F2| E8-| E2 z2 z4|
z2 ec ec2e-| e6 c2| B4- B=A _A2| =G8| F4- F=G=AB| 
c2 =B2 c2 d2| =d2 f2 =d2<c2| _B6 z2| 
E2 F2 =G2 _A2| B2 c2 _G2<F2| E8-| E6 z2| 
z c ec ec2e-| e2 E2 F2 G2| =G8-| =G2 z2 z4|
z2 c=B c2<_B2| c=d2c4-c|
z2 c=A c2 =d2| c=A2F3 z2| B2<=A2 _A2<F2| B2<c2 _G2 F2| E8-|E6 z2 |